X: 41193
T: Trite In The Extreme
R: reel
M: 4/4
K: Eminor
E2GE AEBE|E2GE cEGE|D2DE FDFG|AGFD GFED|
E2GE AEBE|E2GE cEGE|D2DE FDFG|AGFD E3z:|
B2eB fBgB|B2eB fBgB|A2dA eAfA|gAfA edBA|
B2eB fBgB|B2eB fBgB|A2dA eAfA|gfed e3z:|

